X:1
T:Mary Mild
M:4/4
L:1/8
K:E
G-A| B2 B3/2 B/2 B2 Be| B6 G2| F3- G A3 G| F6| B3/2 A/2| G3 F E2 G3/2 G/2|\
 C3 C B,3 B,| E2F-A G2 F3/2 E/2| E6||
